X: 36503
T: Sergeant Cahill
R: slide
M: 12/8
K: Gmajor
D2E G2A|B2 d dBG|B2B ABA|G2A BGE|
D2E G2A|B2d dBG|B2B ABA|1 G3 G3:|2 G3 GBd||
g2d e2d|g2d e2d|B2B ABA|G2A BGE|
D2E G2A|B2 d dBG|B2B ABA|1 G3 GBd:|2 G3 G3||

